include/LD/assets/icons/utility/desktop.svg

<?xml version="1.0"?><svg xmlns="http://www.w3.org/2000/svg" width="52" height="52" viewBox="0 0 52 52"><g fill="#fff"><path d="m50 6c0-2.2-1.8-4-4-4h-40c-2.2 0-4 1.8-4 4v26c0 2.2 1.8 4 4 4h40c2.2 0 4-1.8 4-4v-26z m-6 22.5c0 0.8-0.7 1.5-1.5 1.5h-33c-0.8 0-1.5-0.7-1.5-1.5v-19c0-0.8 0.7-1.5 1.5-1.5h33c0.8 0 1.5 0.7 1.5 1.5v19z m-11 15.5h-3c-0.6 0-1-0.4-1-1v-2c0-0.6-0.4-1-1-1h-4c-0.6 0-1 0.4-1 1v2c0 0.6-0.4 1-1 1h-3c-2.2 0-4 1.8-4 4v0.5c0 0.8 0.7 1.5 1.5 1.5h19c0.8 0 1.5-0.7 1.5-1.5v-0.5c0-2.2-1.8-4-4-4z"></path></g></svg>

<svg xmlns="http://www.w3.org/2000/svg" x="0px" y="0px"
	 width="52px" height="52px" viewBox="0 0 52 52" enable-background="new 0 0 52 52" xml:space="preserve">
<g>
	<path fill="#FFFFFF" d="M50,6c0-2.2-1.8-4-4-4H6C3.8,2,2,3.8,2,6v26c0,2.2,1.8,4,4,4h40c2.2,0,4-1.8,4-4V6z M44,28.5
		c0,0.8-0.7,1.5-1.5,1.5h-33C8.7,30,8,29.3,8,28.5v-19C8,8.7,8.7,8,9.5,8h33C43.3,8,44,8.7,44,9.5V28.5z"/>
	<path fill="#FFFFFF" d="M33,44h-3c-0.6,0-1-0.4-1-1v-2c0-0.6-0.4-1-1-1h-4c-0.6,0-1,0.4-1,1v2c0,0.6-0.4,1-1,1h-3c-2.2,0-4,1.8-4,4
		v0.5c0,0.8,0.7,1.5,1.5,1.5h8h3h8c0.8,0,1.5-0.7,1.5-1.5V48C37,45.8,35.2,44,33,44z"/>
</g>
</svg>
